X: 106
T: Oxford Ramble
B: 204 Favourite Country Dances
N: Published by Straight & Skillern, London ca.1775
F: http://imslp.org/wiki/204_Favourite_Country_Dances_(Various) p.53 #106
Z: 2014 John Chambers <jc:trillian.mit.edu>
M: C|
L: 1/8
K: G
%%slurgraces yes
%%graceslurs yes
% - - - - - - - - - - - - - - - - - - - - - - - - -
|:\
GGBG dddB | edcB AFED |\
GGBG dddB | edcB {B2}A4 :|\
|:\
DFAc cBBA | DGBd dccB |\
eecA ddBG | cAGF G2G,2 :|
% - - - - - - - - - - - - - - - - - - - - - - - - -
%%begintext align
%% Cast off 2 Cu. cast up again cross over 2
%% Cu. lead up to the top & cast off set corners
%% & turn lead out sides & turn
%%endtext

%%sep 1 1 500
%%sep 1 1 500
